proprietary/assets/icons/vervoersmiddelen/schip-in-sluis.svg

<svg height="64" viewBox="0 0 64 64" width="64" xmlns="http://www.w3.org/2000/svg"><path d="m0 0h64v64h-64z" fill="none"/><path d="m18 43.8096c0 4.0056.8432 8.7863 1.4347 11.6512 1.2893-.3943 2.4467-1.0198 2.7938-1.243l2.2715-1.46 2.2715 1.46c.6514.4092 2.9238 1.582 4.7285 1.582 1.8818 0 4.209-1.248 4.7285-1.582l2.2715-1.46 2.2715 1.46c.4283.269 1.5592.8632 2.7953 1.2421.5915-2.8598 1.4332-7.6302 1.4332-11.6503 0 0-1.6298-.8533-4-1.7518v-6.5578c0-.2762-.2239-.5-.5-.5h-2.5v-3.5c0-.2762-.2239-.5-.5-.5h-12c-.2762 0-.5.2238-.5.5v3.5h-2.5c-.2762 0-.5.2238-.5.5v3.8931c1.683-.4659 3.7591-.885 6.1655-1.0569 4.1597-.2971 7.0955.9127 8.9664 2.0582.244.1494.3149.3262.2958.4954-1.9031-.5146-3.9633-.8898-5.9277-.8898-6.2612 0-13.5 3.8096-13.5 3.8096zm11 6.1904h-7v-3c0-.5527.4478-1 1-1s1 .4473 1 1v1h3v-1c0-.5528.4478-1 1-1s1 .4472 1 1zm5-3c0-.5527.4478-1 1-1s1 .4473 1 1v1h3v-1c0-.5528.4478-1 1-1s1 .4472 1 1v3h-7z"/><path d="m16 12h31v15h-31z"/><path d="m56 35v-25h3v-8h-55v8h3v25h-4v20.7662c.1687.0179.337.0336.5.0336 1.8818 0 4.209-1.248 4.7285-1.582l2.2715-1.46 2.2715 1.46c.2327.1461.6775.3904 1.2285.6432v-44.861h35v44.8652c.5845-.2684 1.0337-.5222 1.2285-.6475l2.2715-1.46 2.2715 1.46c.6514.4092 2.9238 1.582 4.7285 1.582.1633 0 .3317-.0166.5-.0339v-20.7658z"/><path d="m53.5811 56.1874-1.0811-.6953-1.0811.6953c-.0302.0195-3.0859 1.9326-5.9189 1.9326-2.8506 0-5.8916-1.915-5.9189-1.9326l-1.0811-.6953-1.0811.6953c-.0302.0195-3.0859 1.9326-5.9189 1.9326-2.8506 0-5.8916-1.915-5.9189-1.9326l-1.0811-.6953-1.0811.6953c-.0302.0195-3.0859 1.9326-5.9189 1.9326-2.8506 0-5.8916-1.915-5.9189-1.9326l-1.0811-.6953-1.0811.6953c-.0302.0195-3.0859 1.9326-5.9189 1.9326-.1662 0-.3331-.0078-.5-.02v3.8816c.1664.0081.3327.0184.5.0184 2.8105 0 5.542-1.1914 7-1.9521 1.458.7607 4.1895 1.9521 7 1.9521s5.542-1.1914 7-1.9521c1.458.7607 4.1895 1.9521 7 1.9521s5.542-1.1914 7-1.9521c1.458.7607 4.1895 1.9521 7 1.9521s5.542-1.1914 7-1.9521c1.458.7607 4.1895 1.9521 7 1.9521.1673 0 .3336-.0103.5-.0184v-3.8818c-.167.0124-.3339.0201-.5.0201-2.8506.0001-5.8916-1.9149-5.9189-1.9325z"/></svg>

<?xml version="1.0" encoding="utf-8"?>
<!-- Generator: Adobe Illustrator 17.1.0, SVG Export Plug-In . SVG Version: 6.00 Build 0)  -->
<svg version="1.2" baseProfile="tiny" xmlns="http://www.w3.org/2000/svg" xmlns:xlink="http://www.w3.org/1999/xlink" x="0px"
	 y="0px" width="64px" height="64px" viewBox="0 0 64 64" xml:space="preserve">
<g id="_x36_4px_Boxes">
	<rect fill="none" width="64" height="64"/>
</g>
<g id="Production">
	<g>
		<path d="M18,43.8096c0,4.0056,0.8432,8.7863,1.4347,11.6512c1.2893-0.3943,2.4467-1.0198,2.7938-1.243l2.2715-1.46l2.2715,1.46
			c0.6514,0.4092,2.9238,1.582,4.7285,1.582c1.8818,0,4.209-1.248,4.7285-1.582l2.2715-1.46l2.2715,1.46
			c0.4283,0.269,1.5592,0.8632,2.7953,1.2421C44.1583,52.6001,45,47.8297,45,43.8096c0,0-1.6298-0.8533-4-1.7518V35.5
			c0-0.2762-0.2239-0.5-0.5-0.5H38v-3.5c0-0.2762-0.2239-0.5-0.5-0.5h-12c-0.2762,0-0.5,0.2238-0.5,0.5V35h-2.5
			c-0.2762,0-0.5,0.2238-0.5,0.5v3.8931c1.683-0.4659,3.7591-0.885,6.1655-1.0569c4.1597-0.2971,7.0955,0.9127,8.9664,2.0582
			c0.244,0.1494,0.3149,0.3262,0.2958,0.4954C35.5246,40.3752,33.4644,40,31.5,40C25.2388,40,18,43.8096,18,43.8096z M29,50h-7v-3
			c0-0.5527,0.4478-1,1-1s1,0.4473,1,1v1h3v-1c0-0.5528,0.4478-1,1-1s1,0.4472,1,1V50z M34,47c0-0.5527,0.4478-1,1-1s1,0.4473,1,1v1
			h3v-1c0-0.5528,0.4478-1,1-1c0.5522,0,1,0.4472,1,1v3h-7V47z"/>
		<rect x="16" y="12" width="31" height="15"/>
		<path d="M56,35V10h3V2H4v8h3v25H3v20.7662c0.1687,0.0179,0.337,0.0336,0.5,0.0336c1.8818,0,4.209-1.248,4.7285-1.582l2.2715-1.46
			l2.2715,1.46C13.0042,54.3639,13.449,54.6082,14,54.861V10h35v44.8652c0.5845-0.2684,1.0337-0.5222,1.2285-0.6475l2.2715-1.46
			l2.2715,1.46c0.6514,0.4092,2.9238,1.582,4.7285,1.582c0.1633,0,0.3317-0.0166,0.5-0.0339V35H56z"/>
		<path d="M53.5811,56.1874L52.5,55.4921l-1.0811,0.6953C51.3887,56.2069,48.333,58.12,45.5,58.12
			c-2.8506,0-5.8916-1.915-5.9189-1.9326L38.5,55.4921l-1.0811,0.6953C37.3887,56.2069,34.333,58.12,31.5,58.12
			c-2.8506,0-5.8916-1.915-5.9189-1.9326L24.5,55.4921l-1.0811,0.6953C23.3887,56.2069,20.333,58.12,17.5,58.12
			c-2.8506,0-5.8916-1.915-5.9189-1.9326L10.5,55.4921l-1.0811,0.6953C9.3887,56.2069,6.333,58.12,3.5,58.12
			c-0.1662,0-0.3331-0.0078-0.5-0.02v3.8816C3.1664,61.9897,3.3327,62,3.5,62c2.8105,0,5.542-1.1914,7-1.9521
			C11.958,60.8086,14.6895,62,17.5,62s5.542-1.1914,7-1.9521C25.958,60.8086,28.6895,62,31.5,62s5.542-1.1914,7-1.9521
			C39.958,60.8086,42.6895,62,45.5,62s5.542-1.1914,7-1.9521C53.958,60.8086,56.6895,62,59.5,62c0.1673,0,0.3336-0.0103,0.5-0.0184
			v-3.8818c-0.167,0.0124-0.3339,0.0201-0.5,0.0201C56.6494,58.12,53.6084,56.205,53.5811,56.1874z"/>
	</g>
</g>
</svg>
